X: 1
T: Optima Mezzo A (Duo)
C: (KerryWistle, YT)
R: slip jig
M: 6/8
L: 1/8
K: Amaj
|: eA ce ag | e ef dB2 | bd' c'b c'a | gb ag ed :|
|: cA Ac ec | B cd BF2 | gf ef ec | dB GE cA :|
